Numix-Square/48x48/apps/putty.svg

<svg xmlns="http://www.w3.org/2000/svg" xmlns:xlink="http://www.w3.org/1999/xlink" width="48" viewBox="0 0 13.546667 13.546667" height="48">
 <defs>
  <linearGradient id="0">
   <stop stop-color="#dedede"/>
   <stop offset="1" stop-color="#f9f9f9"/>
  </linearGradient>
  <linearGradient gradientTransform="matrix(0.28222223,0,0,0.28222223,0,-283.45334)" xlink:href="#0" id="1" y1="1050.36" x2="0" y2="1006.36" gradientUnits="userSpaceOnUse"/>
 </defs>
 <g transform="matrix(0.28222223,0,0,0.28222223,0,-283.45334)">
  <path transform="translate(0,1004.3622)" d="M 5.1875,1 C 2.8707723,1 1,2.8707723 1,5.1875 l 0,37.625 C 1,45.129228 2.8707723,47 5.1875,47 l 37.625,0 C 45.129228,47 47,45.129228 47,42.8125 L 47,5.1875 C 47,2.8707723 45.129228,1 42.8125,1 L 5.1875,1 z m 0.1875,0.25 37.25,0 c 2.291546,0 4.125,1.8334541 4.125,4.125 l 0,37.25 c 0,2.291546 -1.833454,4.125 -4.125,4.125 l -37.25,0 C 3.0834541,46.75 1.25,44.916546 1.25,42.625 l 0,-37.25 C 1.25,3.0834541 3.0834541,1.25 5.375,1.25 z" opacity="0.05"/>
  <path transform="translate(0,1004.3622)" d="M 5.375,1.25 C 3.0834541,1.25 1.25,3.0834541 1.25,5.375 l 0,37.25 c 0,2.291546 1.8334541,4.125 4.125,4.125 l 37.25,0 c 2.291546,0 4.125,-1.833454 4.125,-4.125 l 0,-37.25 C 46.75,3.0834541 44.916546,1.25 42.625,1.25 l -37.25,0 z m 0.21875,0.25 36.8125,0 C 44.672614,1.5 46.5,3.3273859 46.5,5.59375 l 0,36.8125 C 46.5,44.672614 44.672614,46.5 42.40625,46.5 l -36.8125,0 C 3.3273859,46.5 1.5,44.672614 1.5,42.40625 l 0,-36.8125 C 1.5,3.3273859 3.3273859,1.5 5.59375,1.5 z" opacity="0.1"/>
  <path transform="translate(0,1004.3622)" d="M 5.59375,1.5 C 3.3273859,1.5 1.5,3.3273859 1.5,5.59375 l 0,36.8125 C 1.5,44.672614 3.3273859,46.5 5.59375,46.5 l 36.8125,0 C 44.672614,46.5 46.5,44.672614 46.5,42.40625 l 0,-36.8125 C 46.5,3.3273859 44.672614,1.5 42.40625,1.5 l -36.8125,0 z m 0.09375,0.125 36.625,0 c 2.253773,0 4.0625,1.8087269 4.0625,4.0625 l 0,36.625 c 0,2.253773 -1.808727,4.0625 -4.0625,4.0625 l -36.625,0 c -2.2537731,0 -4.0625,-1.808727 -4.0625,-4.0625 l 0,-36.625 C 1.625,3.4337269 3.4337269,1.625 5.6875,1.625 z" opacity="0.2"/>
  <path transform="translate(0,1004.3622)" d="M 5.6875,1.625 C 3.4337269,1.625 1.625,3.4337269 1.625,5.6875 l 0,36.625 c 0,2.253773 1.8087269,4.0625 4.0625,4.0625 l 36.625,0 c 2.253773,0 4.0625,-1.808727 4.0625,-4.0625 l 0,-36.625 c 0,-2.2537731 -1.808727,-4.0625 -4.0625,-4.0625 l -36.625,0 z m 0.09375,0.125 36.4375,0 c 2.241182,0 4.03125,1.7900679 4.03125,4.03125 l 0,36.4375 c 0,2.241182 -1.790068,4.03125 -4.03125,4.03125 l -36.4375,0 C 3.5400679,46.25 1.75,44.459932 1.75,42.21875 l 0,-36.4375 C 1.75,3.5400679 3.5400679,1.75 5.78125,1.75 z" opacity="0.3"/>
  <path transform="translate(0,1004.3622)" d="M 5.78125,1.75 C 3.5400679,1.75 1.75,3.5400679 1.75,5.78125 l 0,36.4375 c 0,2.241182 1.7900679,4.03125 4.03125,4.03125 l 36.4375,0 c 2.241182,0 4.03125,-1.790068 4.03125,-4.03125 l 0,-36.4375 C 46.25,3.5400679 44.459932,1.75 42.21875,1.75 l -36.4375,0 z m 0.125,0.125 36.1875,0 c 2.228591,0 4.03125,1.802659 4.03125,4.03125 l 0,36.1875 c 0,2.228591 -1.802659,4.03125 -4.03125,4.03125 l -36.1875,0 C 3.677659,46.125 1.875,44.322341 1.875,42.09375 l 0,-36.1875 C 1.875,3.677659 3.677659,1.875 5.90625,1.875 z" opacity="0.4"/>
  <rect width="44.25" height="44.25" x="1.875" y="1006.24" rx="4.02" opacity="0.5"/>
 </g>
 <rect width="12.418" height="12.418" x="0.564" y="0.564" rx="1.129" fill="url(#1)"/>
 <path d="M 11.53125 13 C 11.238467 13.031181 10.998427 13.299182 11 13.59375 L 11 24.40625 C 11.000032 24.720648 11.279585 24.99995 11.59375 25 L 17 25 L 17 27 L 13 27 L 13 29 L 20.28125 29 L 20.28125 25.03125 L 17.96875 23 L 13.4375 23 C 13.228055 22.99995 13.031271 22.803355 13.03125 22.59375 L 13.03125 15.40625 C 13.02795 15.219447 13.160384 15.034827 13.34375 15 C 13.36855 14.995 13.41255 14.995 13.4375 15 L 24.5625 15 C 24.771945 15.00005 24.968732 15.196646 24.96875 15.40625 L 24.96875 18.28125 L 27 18.28125 L 27 13.59375 C 26.999968 13.279423 26.720412 13.000099 26.40625 13 L 11.59375 13 L 11.53125 13 z " transform="scale(0.28222223,0.28222223)" fill="#c0274b" color="#000000"/>
 <path d="M 25.125 19 L 27.59375 21 L 34.5625 21 C 34.771945 21.00005 34.968732 21.196646 34.96875 21.40625 L 34.96875 28.59375 C 34.968732 28.803372 34.771938 28.99995 34.5625 29 L 23.4375 29 C 23.228055 28.99995 23.031271 28.803355 23.03125 28.59375 L 23.03125 27.46875 L 21 25.6875 L 21 30.40625 C 21.000032 30.720648 21.279586 30.99995 21.59375 31 L 27 31 L 27 33 L 23 33 L 23 35 L 35 35 L 35 33 L 31 33 L 31 31 L 36.40625 31 C 36.7204 30.99995 36.999968 30.720623 37 30.40625 L 37 19.59375 C 36.999968 19.279423 36.720407 19.000099 36.40625 19 L 25.125 19 z " transform="scale(0.28222223,0.28222223)" fill="#283a51" color="#000000"/>
 <path d="m 4.2333334,5.3622224 2.5400001,2.2577778 0,-1.4111111 1.9755556,0.8466667 -2.8222223,-2.2577779 0,1.0583334 -1.6933334,-0.4938889 z" fill="#ea8f00" fill-rule="evenodd"/>
</svg>

<svg viewBox="0 0 48 48"><defs><linearGradient id="linearGradient3764" x1="1" x2="47" gradientUnits="userSpaceOnUse" gradientTransform="translate(-47.997785,0.00221467)"><stop stop-color="#e4e4e4" stop-opacity="1"/><stop offset="1" stop-color="#eee" stop-opacity="1"/></linearGradient><clipPath id="clipPath-426702090"><g transform="translate(0,-1004.3622)"><rect rx="4" y="1005.36" x="1" height="46" width="46" fill="#1890d0"/></g></clipPath><clipPath id="clipPath-435134812"><g transform="translate(0,-1004.3622)"><rect rx="4" y="1005.36" x="1" height="46" width="46" fill="#1890d0"/></g></clipPath></defs><g><g transform="translate(0,-1004.3622)"><path d="m 5 1006.36 c -2.216 0 -4 1.784 -4 4 l 0 37.25 c 0 2.216 1.784 4 4 4 l 38 0 c 2.216 0 4 -1.784 4 -4 l 0 -37.25 c 0 -2.216 -1.784 -4 -4 -4 l -38 0 z m -4 41.5 0 0.5 c 0 2.216 1.784 4 4 4 l 38 0 c 2.216 0 4 -1.784 4 -4 l 0 -0.5 c 0 2.216 -1.784 4 -4 4 l -38 0 c -2.216 0 -4 -1.784 -4 -4 z" opacity="0.02"/><path d="m 1 1047.61 0 0.25 c 0 2.216 1.784 4 4 4 l 38 0 c 2.216 0 4 -1.784 4 -4 l 0 -0.25 c 0 2.216 -1.784 4 -4 4 l -38 0 c -2.216 0 -4 -1.784 -4 -4 z" opacity="0.05"/><rect width="46" height="46" x="1" y="1005.61" rx="4" opacity="0.1"/></g></g><g><rect width="46" height="46" x="-46.998" y="1" rx="4" transform="matrix(0,-1,1,0,0,0)" fill="url(#linearGradient3764)" fill-opacity="1"/></g><g/><g><g clip-path="url(#clipPath-426702090)"><g opacity="0.1"><!-- color: #eeeeee --><g><path d="m 11.531 13 c -0.293 0.031 -0.535 0.301 -0.531 0.594 l 0 10.813 c 0 0.316 0.281 0.594 0.594 0.594 l 5.406 0 l 0 2 l -4 0 l 0 2 l 7.281 0 l 0 -3.969 l -2.313 -2.031 l -4.531 0 c -0.211 0 -0.406 -0.195 -0.406 -0.406 l 0 -7.188 c -0.004 -0.188 0.129 -0.371 0.313 -0.406 c 0.023 -0.004 0.07 -0.004 0.094 0 l 11.125 0 c 0.211 0 0.406 0.199 0.406 0.406 l 0 2.875 l 2.031 0 l 0 -4.688 c 0 -0.313 -0.281 -0.594 -0.594 -0.594 m -14.875 0" stroke="none" fill-rule="nonzero" fill-opacity="1" fill="#000"/><path d="m 25.13 19 l 2.469 2 l 6.969 0 c 0.211 0 0.406 0.195 0.406 0.406 l 0 7.188 c 0 0.211 -0.195 0.406 -0.406 0.406 l -11.125 0 c -0.207 0 -0.406 -0.195 -0.406 -0.406 l 0 -1.125 l -2.02 -1.781 l 0 4.719 c 0 0.316 0.27 0.594 0.594 0.594 l 5.406 0 l 0 2 l -4 0 l 0 2 l 12 0 l 0 -2 l -4 0 l 0 -2 l 5.395 0 c 0.316 0 0.605 -0.277 0.605 -0.594 l 0 -10.813 c 0 -0.313 -0.281 -0.594 -0.605 -0.594 m -11.273 0" stroke="none" fill-rule="nonzero" fill-opacity="1" fill="#000"/><path d="m 15 19 l 9 8 l 0 -5 l 7 3 l -10 -8 l 0 3.75 l -5.996 -1.75 m -0.004 0" stroke="none" fill-rule="evenodd" fill-opacity="1" fill="#000"/></g></g></g></g><g><g clip-path="url(#clipPath-435134812)"><g transform="translate(0,-1)"><!-- color: #eeeeee --><g><path d="m 11.531 13 c -0.293 0.031 -0.535 0.301 -0.531 0.594 l 0 10.813 c 0 0.316 0.281 0.594 0.594 0.594 l 5.406 0 l 0 2 l -4 0 l 0 2 l 7.281 0 l 0 -3.969 l -2.313 -2.031 l -4.531 0 c -0.211 0 -0.406 -0.195 -0.406 -0.406 l 0 -7.188 c -0.004 -0.188 0.129 -0.371 0.313 -0.406 c 0.023 -0.004 0.07 -0.004 0.094 0 l 11.125 0 c 0.211 0 0.406 0.199 0.406 0.406 l 0 2.875 l 2.031 0 l 0 -4.688 c 0 -0.313 -0.281 -0.594 -0.594 -0.594 m -14.875 0" fill="#c0274b" stroke="none" fill-rule="nonzero" fill-opacity="1"/><path d="m 25.13 19 l 2.469 2 l 6.969 0 c 0.211 0 0.406 0.195 0.406 0.406 l 0 7.188 c 0 0.211 -0.195 0.406 -0.406 0.406 l -11.125 0 c -0.207 0 -0.406 -0.195 -0.406 -0.406 l 0 -1.125 l -2.02 -1.781 l 0 4.719 c 0 0.316 0.27 0.594 0.594 0.594 l 5.406 0 l 0 2 l -4 0 l 0 2 l 12 0 l 0 -2 l -4 0 l 0 -2 l 5.395 0 c 0.316 0 0.605 -0.277 0.605 -0.594 l 0 -10.813 c 0 -0.313 -0.281 -0.594 -0.605 -0.594 m -11.273 0" fill="#283751" stroke="none" fill-rule="nonzero" fill-opacity="1"/><path d="m 15 19 l 9 8 l 0 -5 l 7 3 l -10 -8 l 0 3.75 l -5.996 -1.75 m -0.004 0" fill="#ea8e00" stroke="none" fill-rule="evenodd" fill-opacity="1"/></g></g></g></g><g><g transform="translate(0,-1004.3622)"><path d="m 1 1043.36 0 4 c 0 2.216 1.784 4 4 4 l 38 0 c 2.216 0 4 -1.784 4 -4 l 0 -4 c 0 2.216 -1.784 4 -4 4 l -38 0 c -2.216 0 -4 -1.784 -4 -4 z" opacity="0.1"/></g></g></svg>
